public/wcf-icon.svg

<?xml version="1.0" encoding="UTF-8"?><svg id="Layer_1" xmlns="http://www.w3.org/2000/svg" viewBox="0 0 1024 1024"><defs><style>.cls-1{fill:#005c96;}.cls-2{fill:#fff;}.cls-3{fill:#ec3540;stroke:#005c96;stroke-miterlimit:10;stroke-width:33.26px;}.cls-4{fill:#25bfef;}</style></defs><path class="cls-1" d="M695.7,612.11l45.53,18.66c71.84,7.5,153.85-40.38,159.66-68.51l-39.51,7.53c51.16-30.57,96.55-127.39,70.36-197.58-.01.06-6.27,33-36.82,48.21,59.64-168.94-178.12-156.32-100.72-278.06,0,0-87.66,4.55-110.73,103.38-23.07,98.83,42.03,89.67,57.95,162.39,15.92,72.73-90.04,89.28-122.03,40.66-6.3,1.42,30.63,117.87,22.65,141.63"/><path class="cls-2" d="M746.73,195.87s-1.78,39.52,36.05,68.61c33.48,25.74,98.2,58.35,75.44,148.3-5.39,21.29-16.07,40.88-30.77,57.19-7.09,7.86-13.91,15.42-15.01,16.58,0,0,29.66,15.3,85.88-29.7,0,0-35.15,127.71-163.2,113.51,0,0,11.23,23.58,68.87,27.26,0,0-56.11,36.72-144.37-23.14,0,0,12.78-39.53-.11-60.43,0,0,56.79,19.89,110.48-57.29,19.31-27.77,11.51-73.66-15.11-108.26-32.83-42.68-56.9-96.73-8.13-152.61Z"/><path class="cls-4" d="M735.11,570.35c128.05,14.21,163.2-113.51,163.2-113.51-56.22,45.01-85.88,29.7-85.88,29.7,79.32-78.23,20.84-154.46-10.57-174.33-31.41-19.87-39.17-37.42-39.17-37.42,6.67,50.92,74.52,115.81,7.34,181.98l-.05-.04c-53.68,77.18-137.94,46.98-137.94,46.98,12.9,20.91,27.57,70.75,27.57,70.75,88.26,59.85,144.37,23.14,144.37,23.14-57.64-3.68-68.87-27.26-68.87-27.26Z"/><polygon class="cls-3" points="521.53 253.1 567.47 424.36 738.73 378.41 613.42 503.72 738.73 629.03 567.47 583.09 521.53 754.34 475.58 583.09 304.32 629.03 429.63 503.72 304.32 378.41 475.58 424.36 521.53 253.1"/></svg>

<?xml version="1.0" encoding="UTF-8" standalone="no"?>
<!DOCTYPE svg PUBLIC "-//W3C//DTD SVG 1.1//EN" "http://www.w3.org/Graphics/SVG/1.1/DTD/svg11.dtd">
<svg width="100%" height="100%" viewBox="0 0 692 677" version="1.1" xmlns="http://www.w3.org/2000/svg" xmlns:xlink="http://www.w3.org/1999/xlink" xml:space="preserve" xmlns:serif="http://www.serif.com/" style="fill-rule:evenodd;clip-rule:evenodd;stroke-miterlimit:10;">
    <g transform="matrix(1,0,0,1,-248,-142)">
        <path d="M695.7,612.11L741.23,630.77C813.07,638.27 895.08,590.39 900.89,562.26L861.38,569.79C912.54,539.22 957.93,442.4 931.74,372.21C931.73,372.27 925.47,405.21 894.92,420.42C954.56,251.48 716.8,264.1 794.2,142.36C794.2,142.36 706.54,146.91 683.47,245.74C660.4,344.57 725.5,335.41 741.42,408.13C757.34,480.86 651.38,497.41 619.39,448.79C613.09,450.21 650.02,566.66 642.04,590.42" style="fill:rgb(0,92,150);fill-rule:nonzero;"/>
        <path d="M746.73,195.87C746.73,195.87 744.95,235.39 782.78,264.48C816.26,290.22 880.98,322.83 858.22,412.78C852.83,434.07 842.15,453.66 827.45,469.97C820.36,477.83 813.54,485.39 812.44,486.55C812.44,486.55 842.1,501.85 898.32,456.85C898.32,456.85 863.17,584.56 735.12,570.36C735.12,570.36 746.35,593.94 803.99,597.62C803.99,597.62 747.88,634.34 659.62,574.48C659.62,574.48 672.4,534.95 659.51,514.05C659.51,514.05 716.3,533.94 769.99,456.76C789.3,428.99 781.5,383.1 754.88,348.5C722.05,305.82 697.98,251.77 746.75,195.89L746.73,195.87Z" style="fill:white;fill-rule:nonzero;"/>
        <path d="M735.11,570.35C863.16,584.56 898.31,456.84 898.31,456.84C842.09,501.85 812.43,486.54 812.43,486.54C891.75,408.31 833.27,332.08 801.86,312.21C770.45,292.34 762.69,274.79 762.69,274.79C769.36,325.71 837.21,390.6 770.03,456.77L769.98,456.73C716.3,533.91 632.04,503.71 632.04,503.71C644.94,524.62 659.61,574.46 659.61,574.46C747.87,634.31 803.98,597.6 803.98,597.6C746.34,593.92 735.11,570.34 735.11,570.34L735.11,570.35Z" style="fill:rgb(37,191,239);fill-rule:nonzero;"/>
        <path d="M521.53,253.1L567.47,424.36L738.73,378.41L613.42,503.72L738.73,629.03L567.47,583.09L521.53,754.34L475.58,583.09L304.32,629.03L429.63,503.72L304.32,378.41L475.58,424.36L521.53,253.1Z" style="fill:rgb(236,53,64);fill-rule:nonzero;stroke:rgb(0,92,150);stroke-width:33.26px;"/>
    </g>
</svg>
